docs/assets/images/svg/icon-insta.svg

<svg width="28" height="28" viewBox="0 0 28 28" fill="inherit" xmlns="http://www.w3.org/2000/svg">
<path fill-rule="evenodd" clip-rule="evenodd" d="M14.0002 2.41211C17.9086 2.41211 18.3718 2.42618 19.9152 2.49629C21.3424 2.5616 22.117 2.80006 22.6329 3.00044C23.3161 3.26579 23.8031 3.58306 24.3152 4.09545C24.8275 4.60784 25.1446 5.09587 25.4106 5.77902C25.611 6.2945 25.8497 7.06914 25.9147 8.49652C25.9848 10.0399 26 10.5034 26 14.4104C26 18.3175 25.9848 18.781 25.9147 20.3244C25.8494 21.7518 25.611 22.5264 25.4106 23.0419C25.1453 23.725 24.8275 24.2116 24.3152 24.7236C23.8028 25.236 23.3163 25.5533 22.6329 25.8186C22.1176 26.0199 21.3424 26.2578 19.9152 26.323C18.372 26.3932 17.9086 26.4085 14.0002 26.4085C10.0916 26.4085 9.6283 26.3932 8.08514 26.323C6.65794 26.2571 5.88339 26.0187 5.36706 25.8183C4.684 25.5529 4.19603 25.2357 3.6837 24.7233C3.17138 24.2109 2.85426 23.7241 2.58826 23.0406C2.3879 22.5253 2.14912 21.7505 2.08417 20.3231C2.01407 18.7799 2 18.3162 2 14.4067C2 10.4974 2.01407 10.0362 2.08417 8.49286C2.14947 7.06548 2.3879 6.29084 2.58826 5.77479C2.85357 5.09152 3.17138 4.60361 3.6837 4.09122C4.19603 3.57883 4.684 3.26156 5.36706 2.99564C5.88305 2.79434 6.65794 2.55645 8.08514 2.4908L14.0002 2.41211ZM20.0572 6.59919C20.0572 5.62896 20.8441 4.84299 21.8139 4.84299C22.7837 4.84299 23.5704 5.6293 23.5704 6.59919C23.5704 7.56907 22.7837 8.35595 21.8139 8.35595C20.8441 8.35595 20.0572 7.56907 20.0572 6.59919ZM13.9999 6.89564C9.84855 6.89575 6.48298 10.262 6.48298 14.4138C6.48298 18.5658 9.84878 21.9305 14.0002 21.9305C18.1516 21.9305 21.5162 18.5658 21.5162 14.4138C21.5162 10.2619 18.1513 6.89564 13.9999 6.89564Z"/>
<path d="M14.0001 9.53377C16.6947 9.53377 18.8795 11.7185 18.8795 14.4137C18.8795 17.1087 16.6947 19.2937 14.0001 19.2937C11.3053 19.2937 9.12077 17.1087 9.12077 14.4137C9.12077 11.7185 11.3053 9.53377 14.0001 9.53377Z"/>
</svg>

<svg width="28" height="28" fill="inherit" xmlns="http://www.w3.org/2000/svg"><path fill-rule="evenodd" clip-rule="evenodd" d="M14 2.412c3.909 0 4.372.014 5.915.084 1.427.066 2.202.304 2.718.504a4.54 4.54 0 011.682 1.095c.512.513.83 1 1.096 1.684.2.516.439 1.29.504 2.718.07 1.543.085 2.006.085 5.913 0 3.907-.015 4.371-.085 5.914-.066 1.428-.304 2.202-.504 2.718a4.527 4.527 0 01-1.096 1.682c-.512.512-.999.83-1.682 1.095-.515.2-1.29.439-2.718.504-1.543.07-2.006.085-5.915.085-3.908 0-4.372-.015-5.915-.085-1.427-.066-2.202-.304-2.718-.505a4.535 4.535 0 01-1.683-1.095 4.53 4.53 0 01-1.096-1.682c-.2-.516-.439-1.29-.504-2.718C2.014 18.78 2 18.316 2 14.407c0-3.91.014-4.37.084-5.914.065-1.428.304-2.202.504-2.718A4.535 4.535 0 013.684 4.09c.512-.512 1-.83 1.683-1.095.516-.202 1.29-.44 2.718-.505L14 2.412zM20.057 6.6a1.757 1.757 0 113.513 0 1.757 1.757 0 01-3.513 0zM14 6.896a7.518 7.518 0 000 15.034 7.516 7.516 0 007.516-7.516A7.517 7.517 0 0014 6.896z"/><path d="M14 9.534a4.88 4.88 0 110 9.76 4.88 4.88 0 010-9.76z"/></svg>
